svg/draw.svg

<svg xmlns="http://www.w3.org/2000/svg" viewBox="0 0 24 24"><path d="M9.75 20.85c1.78-.7 1.39-2.63.49-3.85-.89-1.25-2.12-2.11-3.36-2.94A9.8 9.8 0 0 1 4.54 12c-.28-.33-.85-.94-.27-1.06.59-.12 1.61.46 2.13.68.91.38 1.81.82 2.65 1.34l1.01-1.7C8.5 10.23 6.5 9.32 4.64 9.05c-1.06-.16-2.18.06-2.54 1.21-.32.99.19 1.99.77 2.77 1.37 1.83 3.5 2.71 5.09 4.29.34.33.75.72.95 1.18.21.44.16.47-.31.47-1.24 0-2.79-.97-3.8-1.61l-1.01 1.7c1.53.94 4.09 2.41 5.96 1.79m11.09-15.6c.22-.22.22-.58 0-.79l-1.3-1.3a.56.56 0 0 0-.78 0l-1.02 1.02 2.08 2.08M11 10.92V13h2.08l6.15-6.15-2.08-2.08z"/></svg>

<?xml version="1.0" encoding="UTF-8"?><!DOCTYPE svg PUBLIC "-//W3C//DTD SVG 1.1//EN" "http://www.w3.org/Graphics/SVG/1.1/DTD/svg11.dtd"><svg xmlns="http://www.w3.org/2000/svg" xmlns:xlink="http://www.w3.org/1999/xlink" version="1.1" id="mdi-draw" width="24" height="24" viewBox="0 0 24 24"><path d="M9.75 20.85C11.53 20.15 11.14 18.22 10.24 17C9.35 15.75 8.12 14.89 6.88 14.06C6 13.5 5.19 12.8 4.54 12C4.26 11.67 3.69 11.06 4.27 10.94C4.86 10.82 5.88 11.4 6.4 11.62C7.31 12 8.21 12.44 9.05 12.96L10.06 11.26C8.5 10.23 6.5 9.32 4.64 9.05C3.58 8.89 2.46 9.11 2.1 10.26C1.78 11.25 2.29 12.25 2.87 13.03C4.24 14.86 6.37 15.74 7.96 17.32C8.3 17.65 8.71 18.04 8.91 18.5C9.12 18.94 9.07 18.97 8.6 18.97C7.36 18.97 5.81 18 4.8 17.36L3.79 19.06C5.32 20 7.88 21.47 9.75 20.85M20.84 5.25C21.06 5.03 21.06 4.67 20.84 4.46L19.54 3.16C19.33 2.95 18.97 2.95 18.76 3.16L17.74 4.18L19.82 6.26M11 10.92V13H13.08L19.23 6.85L17.15 4.77L11 10.92Z" /></svg>
